X: 2
T: The Rambler
R: jig
M: 6/8
L: 1/8
K: Cmaj
GEG G2 c | AGE G2 g | age cde | dec dcA |GEG G2 c | AGE G2 g | age cde | dcB c2 :|geg ceg | c'aa ac'a | g3 age | d^cd GBd |gee ceg | c'2 a ac'a | geg age | dcB c2 :|


Tune 510	Setting 510

